src/assets/icons/weeks,fancy,30.svg

<svg width="48" height="48" viewBox="0 0 48 48" fill="none" xmlns="http://www.w3.org/2000/svg">
<rect opacity="0.2" x="4" y="6" width="40" height="40" rx="4" fill="black"/>
<path d="M14.3104 41.2784C18.8842 41.2784 22.1555 38.7628 22.1456 35.2827C22.1555 32.7472 20.5447 30.9375 17.5518 30.5597V30.4006C19.8288 29.9929 21.3999 28.3821 21.3899 26.0952C21.3999 22.8835 18.5859 20.358 14.37 20.358C10.1939 20.358 7.05185 22.804 6.99219 26.3239H11.1186C11.1683 24.7727 12.5902 23.7685 14.3501 23.7685C16.0902 23.7685 17.2536 24.8224 17.2436 26.3537C17.2536 27.9545 15.8913 29.0384 13.9325 29.0384H12.0334V32.2003H13.9325C16.2393 32.2003 17.6811 33.3537 17.6712 34.9943C17.6811 36.6151 16.2891 37.7287 14.3203 37.7287C12.4212 37.7287 10.9993 36.7344 10.9197 35.2429H6.58452C6.65412 38.8026 9.83594 41.2784 14.3104 41.2784ZM33.2248 41.4474C38.3455 41.4474 41.4379 37.5497 41.4478 30.8381C41.4577 24.1761 38.3256 20.358 33.2248 20.358C28.114 20.358 25.0117 24.1662 25.0018 30.8381C24.9819 37.5298 28.0941 41.4375 33.2248 41.4474ZM33.2248 37.8778C30.8881 37.8778 29.3768 35.5312 29.3867 30.8381C29.3967 26.2145 30.8981 23.8878 33.2248 23.8878C35.5415 23.8878 37.0529 26.2145 37.0529 30.8381C37.0629 35.5312 35.5515 37.8778 33.2248 37.8778Z" fill="black"/>
<g opacity="0.4">
<path d="M10 4C10 2.89543 10.8954 2 12 2C13.1046 2 14 2.89543 14 4V8C14 9.10457 13.1046 10 12 10C10.8954 10 10 9.10457 10 8V4Z" fill="black"/>
<path d="M34 4C34 2.89543 34.8954 2 36 2C37.1046 2 38 2.89543 38 4V8C38 9.10457 37.1046 10 36 10C34.8954 10 34 9.10457 34 8V4Z" fill="black"/>
</g>
<path fill-rule="evenodd" clip-rule="evenodd" d="M10 6.00869C7.52043 6.04456 6.11466 6.22849 5.17157 7.17157C4 8.34315 4 10.2288 4 14V16H44V14C44 10.2288 44 8.34315 42.8284 7.17157C41.8853 6.22849 40.4796 6.04456 38 6.00869V8C38 9.10457 37.1046 10 36 10C34.8954 10 34 9.10457 34 8V6H14V8C14 9.10457 13.1046 10 12 10C10.8954 10 10 9.10457 10 8V6.00869Z" fill="black"/>
</svg>

<svg xmlns="http://www.w3.org/2000/svg" width="48" height="48" fill="none" viewBox="0 0 48 48">
  <rect width="40" height="40" x="4" y="6" fill="#000" opacity=".2" rx="4"/>
  <path fill="#000" d="M14.31 41.278c4.574 0 7.845-2.515 7.836-5.995.01-2.536-1.601-4.346-4.594-4.723v-.16c2.277-.407 3.848-2.018 3.838-4.305.01-3.211-2.804-5.737-7.02-5.737-4.176 0-7.318 2.446-7.378 5.966h4.127c.05-1.551 1.471-2.556 3.231-2.556 1.74 0 2.904 1.054 2.894 2.586.01 1.6-1.353 2.684-3.312 2.684h-1.899V32.2h1.9c2.306 0 3.748 1.154 3.738 2.794.01 1.621-1.382 2.735-3.35 2.735-1.9 0-3.322-.995-3.401-2.486H6.585c.07 3.56 3.25 6.035 7.725 6.035zm18.915.17c5.12 0 8.213-3.898 8.223-10.61.01-6.662-3.122-10.48-8.223-10.48-5.111 0-8.213 3.808-8.223 10.48-.02 6.692 3.092 10.6 8.223 10.61zm0-3.57c-2.337 0-3.848-2.347-3.838-7.04.01-4.623 1.511-6.95 3.838-6.95 2.316 0 3.828 2.326 3.828 6.95.01 4.693-1.502 7.04-3.828 7.04z"/>
  <g opacity=".4">
    <path fill="#000" d="M10 4a2 2 0 114 0v4a2 2 0 11-4 0V4zM34 4a2 2 0 114 0v4a2 2 0 11-4 0V4z"/>
  </g>
  <path fill="#000" fill-rule="evenodd" d="M10 6.009c-2.48.036-3.885.22-4.828 1.163C4 8.343 4 10.229 4 14v2h40v-2c0-3.771 0-5.657-1.172-6.828-.943-.944-2.348-1.127-4.828-1.163V8a2 2 0 11-4 0V6H14v2a2 2 0 11-4 0V6.009z" clip-rule="evenodd"/>
</svg>
